X:2802501
T:Gr\/onl\aenderpolka
T:Polka from Greenland
S:Olivia und Lars beim Kulturnatten 2013 in NUUK, https://youtu.be/nkxMGGH71Ss,
S:March 4, 2013.
H:Translation: Olivia and Lars at the Kulturnatten 2013 in NUUK.
H:Played in D, then switched to A; transcribed separately in each key.
H:I haven't been able to find any more about the musicians although they're very good.
H:I have also transcribed a version by Thomas M\/oller, harmonica and Anders J. \/Orts
H:(guitar) in C. Each is somewhat different, with its own interesting variations.
H:I include an arrangement I put together that tries to keep the spirit of the
H:tune while combining many of the most enjoyable variations.
H:It's really a Greenland polka; I keep it with Scandinavian tunes for convenience.
N:From NH Country Dance (URL below), along with many New England, Canadian & Swedish
N:tunes, and resources for abc notation and New England traditional music and dance.
%
N: Note #1: To preserve formatting (font, spacing, etc.), use the
N: file header at the URL below; just follow accompanying instructions.
%
N: Note #2: This abc code is optimized for use with abcm2ps, which is used by
N: EasyABC and other abc apps. To abc2svg for display or printing look to see if there
N: is a file optimized for abc2svg. If not you may need to adjust the spacing in places.
%
Z:abc-transcription Peter Yarensky. I rely heavily on careful listening to the
Z:named sources aided by software to hear details. While not perfect, known
Z:substantial differences from other written sources receive careful attention.
Z:abc-copyright Peter Yarensky. You may reproduce this tune freely but
Z:please include the entire abc file including all the notes.
%%writefields HQSD
U:s = !slide!
U:t = !trill!
F:Tunes Home Page - https://fiddle-tunes.nhcountrydance.com/
F:abc Header & its Usage - https://fiddle-tunes.nhcountrydance.com/header-page/
M:2/4
L:1/16
R:Scandinavian Polka
G:Scandinavian Tunes ~ GanglÃ¥ts, Marches & Polkas
N: Tune Tags ~ Polka, Scandinavian
K:Dmaj
%%textfont Palatino-Italic 14
%%text As played by Olivia & Lars in D
%%textfont Palatino-Roman 16
%%
A2 |\
"D" {ABc}d2d2 c2B2 | "D" A4 F2A2    | "G" B4 "A7" c4 | "D" d4 A2A2   |\
"D" B2A2 "G" G2F2     | "A7" E4 A2A2   | "A7" A2A2 A2A2 | "D" A4 A2A2   |
"D" d2d2 c2B2         | "D" A4 F2A2    | "G" B4 "A7" c4 | "D" d4 A2A2   |\
"D" B2A2 "G" G2F2     | "A7" E2AA A4   | "A7" A2AG E2FE | "D" D4 D4     ||
"D" A2AA A2AA         | "D" B2AA A2AG  | "D" F2AA A2AA  | "D" B2AA A2FA |\
"D" d4 "A7" e4        | "D" f2AA B2A2  | "A7" e4 g4     | "D" d4 f4     |
"D" A2AA A2AA         | "D" B2AA A2AG  | "D" F2AA A2AA  | "D" B2AA A2FA |\
"D" d4 "A7" e4        | "D" f2>A2 B2A2 | "A7" e2e2 g4   | "D" d4 f2     |]
%%begintext
%% $2Final Ending: $0The last measure can be played as two D quarter notes, or the last two measures
%% could be played as just accompaniment without melody.
%%
%% $2Some details:$0 In the A part measures 5-8 they really played something closer to this:
%%endtext
%%vskip 20
"@-10,28 A Part Meas. 5â€“8 "
| B2A2 G2F2     | (E4 A2).A2   | .A2.A2 .A2(A2 | !>!A4) A2A2   |
%
%%begintext
%% On the YouTube recording they switch from the key of D to A in the middle of the fourth
%% measure of the first A part. Here's what they played:
%%endtext
d2>d2 c2>B2 | A4>A4 | B4 c4 | d4 [K:A] e2e2 | f2e2 e2e2 | e2ee e2cd | e2>d2 c2d2 | e4 e4 |

